X:4
T:Jerry Holland's 50th Birthday
R:reel
C:Howie MacDonald
D:Howie, Dave  & Mac
Z:Paul Stewart Cranford (P.S.C.), <http://www.cranfordpub.com>
L:1/8
M:C|
Q:333
K:C
G,CEG c2 eg|agec Bdfa|g2 ec (A/B/c) Gc|ecgc edd z|
G,CEG c2 EG|cdeg aAAa|g2 ec Acfa|[1gedf ecc z:|[2gedf ecef||
|:gc c/c/c gcac|gcec defa|gc c/c/c g2 eg|agec de f2|
gc c/c/c gcac|gcec defa|g2 FA dfaf|[1gedf ecef:|[2gedf ecc z|]
